src/pos-icons/card-text-outline.svg

<svg height="24" viewBox="0 0 24 24" width="24" xmlns="http://www.w3.org/2000/svg"><path d="m20 20h-16a2 2 0 0 1 -2-2v-12a2 2 0 0 1 2-2h16a2 2 0 0 1 2 2v12a2 2 0 0 1 -2 2m-16-14v12h16v-12zm2 3h12v2h-12zm0 4h10v2h-10z"/></svg>

<?xml version="1.0" encoding="UTF-8"?><!DOCTYPE svg PUBLIC "-//W3C//DTD SVG 1.1//EN" "http://www.w3.org/Graphics/SVG/1.1/DTD/svg11.dtd"><svg xmlns="http://www.w3.org/2000/svg" xmlns:xlink="http://www.w3.org/1999/xlink" version="1.1" id="mdi-card-text-outline" width="24" height="24" viewBox="0 0 24 24"><path d="M20,20H4A2,2 0 0,1 2,18V6A2,2 0 0,1 4,4H20A2,2 0 0,1 22,6V18A2,2 0 0,1 20,20M4,6V18H20V6H4M6,9H18V11H6V9M6,13H16V15H6V13Z" /></svg>
